src/lib/packages/icons/src/assets/filled/bookmark-star.svg

<svg width="24" height="24" viewBox="0 0 24 24" fill="none" xmlns="http://www.w3.org/2000/svg">
<path d="M16 3H8C6 3 5 4 5 6V21L12 17L19 21V6C19 4 18 3 16 3ZM15.3821 9.83398L14.1221 11.037C14.0301 11.125 13.988 11.252 14.01 11.376L14.2981 13.022C14.3571 13.356 14.0001 13.61 13.6941 13.453L12.1819 12.675C12.0679 12.617 11.9331 12.617 11.8201 12.675L10.3091 13.452C10.0031 13.61 9.6451 13.354 9.7041 13.02L9.99194 11.376C10.0139 11.252 9.97188 11.125 9.87988 11.037L8.62012 9.83398C8.38812 9.61298 8.51594 9.22701 8.83594 9.18201L10.5791 8.93396C10.7061 8.91596 10.8161 8.83798 10.8721 8.72498L11.627 7.22705C11.78 6.92305 12.222 6.92305 12.375 7.22705L13.1299 8.72498C13.1869 8.83798 13.2971 8.91596 13.4231 8.93396L15.166 9.18201C15.486 9.22801 15.6131 9.61298 15.3821 9.83398Z" fill="currentColor"/>
</svg>

<svg xmlns="http://www.w3.org/2000/svg" width="24" height="24" fill="none"><path fill="currentColor" d="M16 3H8C6 3 5 4 5 6v15l7-4 7 4V6c0-2-1-3-3-3Zm-.618 6.834-1.26 1.203a.378.378 0 0 0-.112.339l.288 1.646c.06.334-.298.588-.604.431l-1.512-.778a.398.398 0 0 0-.362 0l-1.51.777c-.307.158-.665-.098-.606-.432l.288-1.644a.378.378 0 0 0-.112-.339L8.62 9.834a.38.38 0 0 1 .216-.652l1.743-.248a.386.386 0 0 0 .293-.209l.755-1.498a.42.42 0 0 1 .748 0l.755 1.498a.39.39 0 0 0 .293.209l1.743.248a.38.38 0 0 1 .216.652Z"/></svg>
